X:1
T:The Old Hag at the Spinning Wheel
M:3/4
L:1/8
Q:80
C:Arr. John Walsh
S:Waltz
K:HP
:|2 A | \
{gdedc}d2{g}fd{g}Ad | \
{gf}g2{a}ge{g}fA |
{gdedc}d2{g}fd{g}Ad | \
{gcGdG}c2{g}cd{g}eA | \
{gdedc}d2{g}fd{g}Ad |
{gf}g2{a}ge{g}fA | \
{ag}a2{g}ag{a}ec | \
{gdedc}d2{g}dc{g}d ::
g | \
{a}fd{g}ec{g}dB | \
{gAGAG}A2{g}A{d}c{g}eA | \
{gAGAG}A2{g}A{d}c{g}eA |
{g}Bd{g}ce{g}dg | \
{a}fd{g}ec{g}dB | \
{gAGAG}A2{g}A{d}c{g}eA |
{gAGAG}A2{g}A{d}c{g}eA | \
{gdedc}d2{g}dc{g}d :|
